icons/general_surgery_fill.svg

<svg width="48" height="48" viewBox="0 0 48 48" fill="none" xmlns="http://www.w3.org/2000/svg">
<path fill-rule="evenodd" clip-rule="evenodd" d="M38.8147 6L29.6888 15.1259L32.3112 16.8742L36.7929 12.3925C37.1834 12.002 37.8166 12.002 38.2071 12.3925C38.5976 12.7831 38.5976 13.4162 38.2071 13.8068L32.7071 19.3068L32.7002 19.2998L30.5858 21.4143C30.2107 21.7893 30 22.298 30 22.8285V23.2843C30 23.822 29.7835 24.3371 29.3993 24.7133L25.7494 28.2871C24.628 29.3851 23.1211 30 21.5516 30H12L27.7002 14.2998L27.6933 14.2929L35.9862 6H9C7.34315 6 6 7.34315 6 9V39C6 40.6569 7.34315 42 9 42H39C40.6569 42 42 40.6569 42 39V9C42 7.34315 40.6569 6 39 6H38.8147ZM16.8284 28H21.5516C22.5979 28 23.6026 27.5901 24.3501 26.8581L28 23.2843V22.8285C28 21.7676 28.4214 20.7502 29.1716 20L30.8607 18.3109L28.2548 16.5736L16.8284 28ZM20 34H10V36H20V34ZM28 34V36H32V34H28ZM22 34H26V36H22V34ZM38 34H34V36H38V34ZM26.7071 22.7072C27.0976 22.3166 27.0976 21.6835 26.7071 21.2929C26.3166 20.9024 25.6834 20.9024 25.2929 21.2929L22.2929 24.2929C21.9024 24.6835 21.9024 25.3166 22.2929 25.7072C22.6834 26.0977 23.3166 26.0977 23.7071 25.7072L26.7071 22.7072Z" fill="black"/>
</svg>

<svg
  xmlns="http://www.w3.org/2000/svg"
  width="24"
  height="24"
  viewBox="0 0 24 24"
  fill="none"
  stroke="currentColor"
  stroke-width="2"
  stroke-linecap="round"
  stroke-linejoin="round"
>
  <path
    fill-rule="evenodd"
    d="m38.815 6-9.126 9.126 2.622 1.748 4.482-4.481a1 1 0 0 1 1.414 1.414l-5.5 5.5-.007-.007-2.114 2.114A2 2 0 0 0 30 22.828v.456a2 2 0 0 1-.6 1.43l-3.65 3.573A6 6 0 0 1 21.551 30H12l15.7-15.7-.007-.007L35.986 6H9a3 3 0 0 0-3 3v30a3 3 0 0 0 3 3h30a3 3 0 0 0 3-3V9a3 3 0 0 0-3-3zM16.828 28h4.724a4 4 0 0 0 2.798-1.142L28 23.284v-.456A4 4 0 0 1 29.172 20l1.689-1.69-2.606-1.736zM20 34H10v2h10zm8 0v2h4v-2zm-6 0h4v2h-4zm16 0h-4v2h4zM26.707 22.707a1 1 0 0 0-1.414-1.414l-3 3a1 1 0 0 0 1.414 1.414z"
    clip-rule="evenodd"
  />
</svg>
